750-vorota/images/logo.svg

<svg width="239" height="41" viewBox="0 0 239 41" fill="none" xmlns="http://www.w3.org/2000/svg">
<path d="M0 38H10.2298L29.4733 9.31358L30.761 1.37295H3.57686L2.28919 9.31358H19.172L19.1004 9.5282L0 38Z" fill="url(#paint0_linear)"/>
<path d="M40.1733 38.5008C49.1334 38.5008 55.8579 33.0639 57.0561 25.4095C58.2186 18.4704 54.2125 13.5343 47.6848 13.5343C43.9827 13.5343 40.692 15.1796 39.1718 17.3973H38.9572L41.0318 9.31358H57.4854L58.773 1.37295H34.1642L29.3712 21.5465L37.8126 23.2633C38.9751 21.4749 41.0497 20.4019 43.1779 20.4019C46.2004 20.4019 47.9888 22.4764 47.4701 25.6956C46.9157 28.9148 44.4835 30.9894 41.3895 30.9894C38.7605 30.9894 36.9005 29.344 37.2403 26.8402H27.5828C26.5276 33.6362 31.7498 38.5008 40.1733 38.5008Z" fill="url(#paint1_linear)"/>
<path d="M72.0573 39.0015C82.001 39.0015 89.3693 31.8478 91.3724 19.758C93.3754 7.65035 88.2963 0.872192 78.3526 0.872192C68.4089 0.872192 61.1121 7.66823 59.0375 19.758C56.963 31.8299 62.0421 39.0015 72.0573 39.0015ZM73.4165 30.9178C69.9827 30.9178 68.0512 27.484 69.3389 19.758C70.5908 12.2466 73.6311 8.88436 77.0649 8.88436C80.4987 8.88436 82.3587 12.2466 81.071 19.758C79.7476 27.4662 76.8503 30.9178 73.4165 30.9178Z" fill="url(#paint2_linear)"/>
<path d="M109.154 18H112.947L107.789 2.83097H103.368L98.2109 18H102.003L102.762 15.6163H108.396L109.154 18ZM103.802 12.3658L105.579 6.79658L107.356 12.3658H103.802Z" fill="#2A2B2E"/>
<path d="M123.536 10.1338C124.36 9.41865 124.858 8.42183 124.858 7.16497C124.858 4.5429 122.713 2.83097 120.069 2.83097H114.132V18H120.503C123.211 18 125.4 16.2447 125.4 13.5576C125.4 12.019 124.663 10.8489 123.536 10.1338ZM120.069 6.08147C120.871 6.08147 121.391 6.64489 121.391 7.42501C121.391 8.20513 120.849 8.76855 120.069 8.76855H117.599V6.08147H120.069ZM120.503 14.7495H117.599V11.8457H120.503C121.369 11.8457 121.933 12.4524 121.933 13.2976C121.933 14.1427 121.369 14.7495 120.503 14.7495Z" fill="#2A2B2E"/>
<path d="M136.778 2.83097H125.51V6.16815H129.411V18H132.878V6.16815H136.778V2.83097Z" fill="#2A2B2E"/>
<path d="M144.558 18.3033C148.914 18.3033 152.446 14.8795 152.446 10.4155C152.446 5.95145 148.914 2.52759 144.558 2.52759C140.202 2.52759 136.67 5.95145 136.67 10.4155C136.67 14.8795 140.202 18.3033 144.558 18.3033ZM144.558 14.9228C142.088 14.9228 140.137 13.1242 140.137 10.4155C140.137 7.70672 142.088 5.90811 144.558 5.90811C147.028 5.90811 148.979 7.70672 148.979 10.4155C148.979 13.1242 147.028 14.9228 144.558 14.9228Z" fill="#2A2B2E"/>
<path d="M169.459 2.83097H165.991L161.874 9.57034L157.757 2.83097H154.29V18H157.757V9.18028L161.679 15.6163H162.069L165.991 9.18028V18H169.459V2.83097Z" fill="#2A2B2E"/>
<path d="M181.601 18H185.393L180.235 2.83097H175.815L170.657 18H174.45L175.208 15.6163H180.842L181.601 18ZM176.248 12.3658L178.025 6.79658L179.802 12.3658H176.248Z" fill="#2A2B2E"/>
<path d="M195.684 2.83097H184.415V6.16815H188.316V18H191.783V6.16815H195.684V2.83097Z" fill="#2A2B2E"/>
<path d="M205.544 18H209.012V2.83097H206.411L200.56 11.0656V2.83097H197.093V18H199.693L205.544 9.76537V18Z" fill="#2A2B2E"/>
<path d="M223.767 18L218.436 10.2204L223.55 2.83097H219.606L214.969 9.41865V2.83097H211.502V18H214.969V10.9789L219.823 18H223.767Z" fill="#2A2B2E"/>
<path d="M235.025 18H238.817L233.66 2.83097H229.239L224.081 18H227.874L228.632 15.6163H234.266L235.025 18ZM229.672 12.3658L231.449 6.79658L233.226 12.3658H229.672Z" fill="#2A2B2E"/>
<path d="M111.43 34.6628V22.831H101.266V29.6353C101.266 32.2141 100.768 33.666 100.075 34.6628H98.536V40.9038H102.003V38H109.588V40.9038H113.055V34.6628H111.43ZM103.758 34.6628C104.3 33.6876 104.734 32.1707 104.734 29.6787V26.0815H107.962V34.6628H103.758Z" fill="#2A2B2E"/>
<path d="M113.916 38C116.711 38.3033 119.897 37.2632 119.897 31.8457V26.1681H123.451V38H126.918V22.831H116.429V31.9757C116.429 34.5111 115.476 34.9878 113.916 34.7495V38Z" fill="#2A2B2E"/>
<path d="M140.351 22.831H134.284C131.402 22.831 129.083 25.1497 129.083 28.0318C129.083 30.0037 130.362 31.8023 132.204 32.5825L128.65 38H132.55L135.779 33.0159H136.884V38H140.351V22.831ZM134.284 29.9821C133.33 29.9821 132.55 29.1369 132.55 28.0318C132.55 26.9266 133.33 26.0815 134.284 26.0815H136.884V29.9821H134.284Z" fill="#2A2B2E"/>
<path d="M157.557 30.1338C158.381 29.4186 158.879 28.4218 158.879 27.165C158.879 24.5429 156.734 22.831 154.09 22.831H148.153V38H154.524C157.232 38 159.421 36.2447 159.421 33.5576C159.421 32.0191 158.684 30.8489 157.557 30.1338ZM154.09 26.0815C154.892 26.0815 155.412 26.6449 155.412 27.425C155.412 28.2051 154.87 28.7685 154.09 28.7685H151.62V26.0815H154.09ZM154.524 34.7495H151.62V31.8457H154.524C155.39 31.8457 155.954 32.4525 155.954 33.2976C155.954 34.1427 155.39 34.7495 154.524 34.7495Z" fill="#2A2B2E"/>
<path d="M168.276 38.3033C172.631 38.3033 176.164 34.8795 176.164 30.4155C176.164 25.9514 172.631 22.5276 168.276 22.5276C163.92 22.5276 160.388 25.9514 160.388 30.4155C160.388 34.8795 163.92 38.3033 168.276 38.3033ZM168.276 34.9228C165.805 34.9228 163.855 33.1242 163.855 30.4155C163.855 27.7067 165.805 25.9081 168.276 25.9081C170.746 25.9081 172.696 27.7067 172.696 30.4155C172.696 33.1242 170.746 34.9228 168.276 34.9228Z" fill="#2A2B2E"/>
<path d="M183.75 22.831H178.007V38H181.475V33.2326H183.75C186.74 33.2326 189.059 30.9139 189.059 28.0318C189.059 25.1497 186.74 22.831 183.75 22.831ZM183.75 29.9821H181.475V26.0815H183.75C184.812 26.0815 185.592 26.9266 185.592 28.0318C185.592 29.1369 184.812 29.9821 183.75 29.9821Z" fill="#2A2B2E"/>
<path d="M197.813 38.3033C202.169 38.3033 205.701 34.8795 205.701 30.4155C205.701 25.9514 202.169 22.5276 197.813 22.5276C193.457 22.5276 189.925 25.9514 189.925 30.4155C189.925 34.8795 193.457 38.3033 197.813 38.3033ZM197.813 34.9228C195.342 34.9228 193.392 33.1242 193.392 30.4155C193.392 27.7067 195.342 25.9081 197.813 25.9081C200.283 25.9081 202.234 27.7067 202.234 30.4155C202.234 33.1242 200.283 34.9228 197.813 34.9228Z" fill="#2A2B2E"/>
<path d="M216.862 22.831H205.593V26.1681H209.494V38H212.961V26.1681H216.862V22.831Z" fill="#2A2B2E"/>
<defs>
<linearGradient id="paint0_linear" x1="47.2114" y1="-14" x2="47.2114" y2="53.0526" gradientUnits="userSpaceOnUse">
<stop stop-color="#FFCC4A"/>
<stop offset="1" stop-color="#ECAA00"/>
</linearGradient>
<linearGradient id="paint1_linear" x1="47.2114" y1="-14" x2="47.2114" y2="53.0526" gradientUnits="userSpaceOnUse">
<stop stop-color="#FFCC4A"/>
<stop offset="1" stop-color="#ECAA00"/>
</linearGradient>
<linearGradient id="paint2_linear" x1="47.2114" y1="-14" x2="47.2114" y2="53.0526" gradientUnits="userSpaceOnUse">
<stop stop-color="#FFCC4A"/>
<stop offset="1" stop-color="#ECAA00"/>
</linearGradient>
</defs>
</svg>

<svg width="239" height="41" fill="none" xmlns="http://www.w3.org/2000/svg"><path d="M0 38h10.23L29.473 9.314l1.288-7.941H3.577l-1.288 7.94h16.883l-.072.215L0 38z" fill="url(#paint0_linear)"/><path d="M40.173 38.5c8.96 0 15.685-5.436 16.883-13.09 1.163-6.94-2.843-11.876-9.371-11.876-3.702 0-6.993 1.646-8.513 3.863h-.215l2.075-8.083h16.453l1.288-7.941H34.164l-4.793 20.174 8.442 1.716c1.162-1.788 3.237-2.861 5.365-2.861 3.022 0 4.81 2.074 4.292 5.294-.554 3.219-2.986 5.293-6.08 5.293-2.63 0-4.49-1.645-4.15-4.149h-9.657c-1.055 6.796 4.167 11.66 12.59 11.66z" fill="url(#paint1_linear)"/><path d="M72.057 39.002c9.944 0 17.312-7.154 19.315-19.244C93.375 7.65 88.296.872 78.352.872c-9.943 0-17.24 6.796-19.315 18.886-2.074 12.072 3.005 19.244 13.02 19.244zm1.36-8.084c-3.434 0-5.366-3.434-4.078-11.16 1.252-7.511 4.292-10.874 7.726-10.874s5.294 3.363 4.006 10.874c-1.323 7.708-4.22 11.16-7.654 11.16z" fill="url(#paint2_linear)"/><path d="M109.154 18h3.793l-5.158-15.169h-4.421L98.211 18h3.792l.759-2.384h5.634l.758 2.384zm-5.352-5.634l1.777-5.57 1.777 5.57h-3.554zm19.734-2.232c.824-.715 1.322-1.712 1.322-2.969 0-2.622-2.145-4.334-4.789-4.334h-5.937V18h6.371c2.708 0 4.897-1.755 4.897-4.442 0-1.539-.737-2.71-1.864-3.424zm-3.467-4.053c.802 0 1.322.564 1.322 1.344 0 .78-.542 1.344-1.322 1.344h-2.47V6.08h2.47zm.434 8.668h-2.904v-2.903h2.904c.866 0 1.43.606 1.43 1.452 0 .845-.564 1.451-1.43 1.451zm16.275-11.918H125.51v3.337h3.901V18h3.467V6.168h3.9V2.831zm7.78 15.472c4.356 0 7.888-3.424 7.888-7.888s-3.532-7.887-7.888-7.887-7.888 3.423-7.888 7.887c0 4.465 3.532 7.888 7.888 7.888zm0-3.38c-2.47 0-4.421-1.799-4.421-4.508 0-2.708 1.951-4.507 4.421-4.507s4.421 1.799 4.421 4.507c0 2.71-1.951 4.508-4.421 4.508zm24.901-12.092h-3.468l-4.117 6.74-4.117-6.74h-3.467V18h3.467V9.18l3.922 6.436h.39l3.922-6.436V18h3.468V2.831zM181.601 18h3.792l-5.158-15.169h-4.42L170.657 18h3.793l.758-2.384h5.634l.759 2.384zm-5.353-5.634l1.777-5.57 1.777 5.57h-3.554zm19.436-9.535h-11.269v3.337h3.901V18h3.467V6.168h3.901V2.831zM205.544 18h3.468V2.831h-2.601l-5.851 8.235V2.83h-3.467V18h2.6l5.851-8.235V18zm18.223 0l-5.331-7.78 5.114-7.389h-3.944l-4.637 6.588V2.83h-3.467V18h3.467v-7.021L219.823 18h3.944zm11.258 0h3.792L233.66 2.831h-4.421L224.081 18h3.793l.758-2.384h5.634l.759 2.384zm-5.353-5.634l1.777-5.57 1.777 5.57h-3.554zM111.43 34.663V22.83h-10.164v6.804c0 2.58-.498 4.031-1.191 5.028h-1.539v6.24h3.467V38h7.585v2.904h3.467v-6.241h-1.625zm-7.672 0c.542-.975.976-2.492.976-4.984V26.08h3.228v8.582h-4.204zM113.916 38c2.795.303 5.981-.737 5.981-6.154v-5.678h3.554V38h3.467V22.831h-10.489v9.145c0 2.535-.953 3.012-2.513 2.773V38zm26.435-15.169h-6.067a5.189 5.189 0 00-5.201 5.2c0 1.973 1.279 3.771 3.121 4.552L128.65 38h3.9l3.229-4.984h1.105V38h3.467V22.831zm-6.067 7.151c-.954 0-1.734-.845-1.734-1.95s.78-1.95 1.734-1.95h2.6v3.9h-2.6zm23.273.152c.824-.715 1.322-1.712 1.322-2.969 0-2.622-2.145-4.334-4.789-4.334h-5.937V38h6.371c2.708 0 4.897-1.755 4.897-4.442 0-1.539-.737-2.71-1.864-3.424zm-3.467-4.053c.802 0 1.322.564 1.322 1.344 0 .78-.542 1.343-1.322 1.343h-2.47v-2.687h2.47zm.434 8.668h-2.904v-2.903h2.904c.866 0 1.43.607 1.43 1.452s-.564 1.451-1.43 1.451zm13.752 3.554c4.355 0 7.888-3.423 7.888-7.887 0-4.465-3.533-7.888-7.888-7.888-4.356 0-7.888 3.423-7.888 7.888 0 4.463 3.532 7.887 7.888 7.887zm0-3.38c-2.471 0-4.421-1.799-4.421-4.508 0-2.708 1.95-4.507 4.421-4.507 2.47 0 4.42 1.799 4.42 4.508 0 2.708-1.95 4.507-4.42 4.507zm15.474-12.092h-5.743V38h3.468v-4.767h2.275c2.99 0 5.309-2.32 5.309-5.201 0-2.882-2.319-5.201-5.309-5.201zm0 7.151h-2.275v-3.9h2.275c1.062 0 1.842.845 1.842 1.95s-.78 1.95-1.842 1.95zm14.063 8.321c4.356 0 7.888-3.423 7.888-7.887 0-4.465-3.532-7.888-7.888-7.888s-7.888 3.423-7.888 7.888c0 4.463 3.532 7.887 7.888 7.887zm0-3.38c-2.471 0-4.421-1.799-4.421-4.508 0-2.708 1.95-4.507 4.421-4.507 2.47 0 4.421 1.799 4.421 4.508 0 2.708-1.951 4.507-4.421 4.507zm19.049-12.092h-11.269v3.337h3.901V38h3.467V26.168h3.901v-3.337z" fill="#2A2B2E"/><defs><linearGradient id="paint0_linear" x1="47.211" y1="-14" x2="47.211" y2="53.053" gradientUnits="userSpaceOnUse"><stop stop-color="#FFCC4A"/><stop offset="1" stop-color="#ECAA00"/></linearGradient><linearGradient id="paint1_linear" x1="47.211" y1="-14" x2="47.211" y2="53.053" gradientUnits="userSpaceOnUse"><stop stop-color="#FFCC4A"/><stop offset="1" stop-color="#ECAA00"/></linearGradient><linearGradient id="paint2_linear" x1="47.211" y1="-14" x2="47.211" y2="53.053" gradientUnits="userSpaceOnUse"><stop stop-color="#FFCC4A"/><stop offset="1" stop-color="#ECAA00"/></linearGradient></defs></svg>
